svg/u1f9e3.svg

<svg viewBox="0 0 128 128" xmlns="http://www.w3.org/2000/svg">
  <g>
    <g>
      <g>
        <path d="M101.53,46.83c1.21-4.29,2.17-10.43,1.02-14.77c-1.61-6.11-3.85-7.03-3.85-7.03 s0.37-5.88-0.97-9.17C92.34,2.6,57.05,0.71,44.25,8.35C31.56,15.93,28.93,33.2,28.55,41.3c-0.39,8.1,6.49,17.28,14.89,23.24 c4.9,3.48,14.65-5.55,18.89-7.27c-6.18-6.08-12.35-12.17-18.53-18.25c0.72-4.21,2.42-8.47,6.19-11.42 c6.81-5.33,35.25-6.07,34.55,4c-0.31,4.46-14.03,22.51-21.86,31.6c0,0,0.93,20.69-1.6,40.2c12.77,1.47,21,0.81,31.75-0.74 c-0.14-9.55,0.34-8.53,0.2-18.07c-0.1-7.01-0.25-14.22-3.07-20.67c-0.21-0.48-1.29-1.05-1.53-1.52 C94.93,59.1,99.46,54.16,101.53,46.83z" fill="#F44336"/>
        <path d="M43.62,29.81c0.43-4.94,0.45-10.29,2.92-14.7c2.64-4.51,11.44-6.08,16.22-6.63 c9.07-1.04,24.75,0.54,25.89,12.05c0.4,4-4.11,11.08-4.11,11.08s-0.46-2.38-1.81-3.07c-5.97-3.02-12.79-4.3-19.45-3.74 C51.41,26,46.17,30.34,43.56,42.03C43.36,37.96,43.38,33.87,43.62,29.81z" fill="#823B1F"/>
        <path d="M94.72,39.83c-1.52-0.55-0.23-2.5,0.25-3.58c2.41-5.54,3.58-11.61,3.42-17.64 c0.01,0.47,2.1,1.84,2.22,9.65c0.06,3.9-1.54,8.08-4.08,11.05C96.19,39.69,95.41,40.13,94.72,39.83z" fill="#823B1F"/>
        <path d="M49.73,48.37c-1.69-0.71-7.71-6.02-9.83-8.62c-4.33-5.31-9.14-12.44-6.23-19.46 c1.64,10.68,10.02,19.09,17.79,25.97C52.59,47.18,51.24,49,49.73,48.37z" fill="#823B1F"/>
        <path d="M95,118.67c-1.43-5.74-1.89-11.6-2.14-17.48c-10.44,1.55-21.1,1.98-31.57,0.69 c-0.99,6.12-0.96,10.2-2.78,17.48c-0.4,1.62-0.76,3.09,0.68,3.75c0.51,0.23,1.19,0.06,1.54-0.39c2.54-3.18,1.47-9.78,3.39-10.05 c3.12-0.45,0.06,8.36,0.71,10.12c0.54,1.48,2.35,1.52,3.01,0.08c0.28-0.58,0.34-1.24,0.4-1.88c0.17-2.03,0.27-3.18,0.44-5.21 c0.09-1.05,0.11-3.12,1.89-3.09c1.4,0.02,1.24,2.17,1.28,3.39c0.09,3.08-0.75,5.98-0.28,6.94c0.57,1.17,1.98,1.25,2.66,0.63 c1.93-2.35,0.89-6.22,1.29-9.08c0.06-2.76,2.36-3.52,3.08-0.68c0.35,2.17,0.18,4.49,0.01,6.69c-0.26,1.48,0.27,3.87,2.19,3.5 c0.92-0.27,1.23-1.4,1.33-2.36c0.25-2.47,0.08-4.97,0.19-7.45c-0.01-0.75,0.26-1.72,1.17-1.82c2.44-0.28,1.96,4.17,2.25,7.79 c0.14,1.77,0.09,3.61,1.67,3.65c1.61,0.04,2.07-1.09,1.93-2.25c-0.31-2.67-0.96-5.22-0.95-8.31c0-0.43,0.21-0.9,0.6-1.07 c1.03-0.38,1.7,0.82,1.89,1.68c0.75,2.5,1.03,5.04,1.71,7.56c0.29,1.05,0.95,2.36,2.02,2.17C96.58,122.98,95.23,120.22,95,118.67 z" fill="#C62828"/>
        <path d="M63.45,90.38c0,0,5.39-13.83,7.81-27.49c1.32-7.48,3.81-13.59,6.74-18.64 c-2.94-1.26-5.77-1.63-8.94-1.15c-1.41,0.21-2.8,0.6-4.23,0.71c-3.28,0.24-5.43-1.09-9.81-0.44c-2.98,0.44-5.02,2.3-6.67,4.49 c-1.66,2.19-2.72,4.75-3.69,7.32c-2.55,6.72-5.14,18.06-9.58,26.79C44.76,87.31,63.45,90.38,63.45,90.38z" fill="#FF7555"/>
        <path d="M55.7,62.1c-1.05,0.22-1.72-1.04-1.69-1.78c0.16-5.1,3.25-9.68,6.07-12.76 c2.71-2.95,5.77-4.42,9.3-4.43c-2.6,1.39-4.76,3.4-6.72,5.76c-1.78,2.36-3.07,5.07-4.08,7.85C58.04,58.26,57.31,61.77,55.7,62.1 z" fill="#823B1F"/>
      </g>
      <path d="M77.48,64.84c-1.7-1.88-2.08-4.81-2.02-7.44c0.16-6.36,3.08-14.6,3.08-14.6 c-0.87,0.87-1.67,2.2-2.21,3.35c-3.16,6.71-5.47,13.82-6.85,21.11c-3.21,14.59-6.5,25.63-7.95,30.3 c-0.11,0.35,0.87-0.17,1.28-0.79c5.47-8.3,7.41-15.5,10.91-24.7c0.09-0.25,0.19-0.5,0.38-0.69c0.24-0.25,11.08-3.47,16.95-10.48 C86.84,62.84,82.09,64.4,77.48,64.84z" fill="#823B1F"/>
    </g>
    <path d="M51.19,85.46c-5.95-1.13-10.2-2.44-15.11-5.49c0,0-4.04,8.04-13.67,13.17 c-0.41,0.22-1.77,0.76-1.41,2.09c0.36,1.32,1.93,1.54,2.59,1.43c2.78-0.46,4.85-2.65,6.88-4.52c0.42-0.39,1.45-0.98,2.43-0.59 c0.66,0.27,0.46,1.02-0.08,1.63c-2.45,2.8-5.36,4.75-5.39,4.77c-0.83,0.5-1.67,1.8-0.2,2.61c2.84,1.57,6.15-1.83,9.14-5.76 c0.36-0.47,1-1.06,2.04-0.62c0.84,0.36,0.56,1.52,0.1,2.18c-1.86,2.66-4.18,4.7-4.2,4.72c-0.73,0.64-1.4,2.07-0.08,2.87 c1.32,0.81,3.69,0.24,7.58-6.19c0.31-0.51,0.95-1.49,2.12-1.4c1.04,0.08,1.34,0.77,0.72,2.11c-1.32,2.85-2.41,3.49-3.45,4.95 c-1.19,1.67-0.67,2.44-0.01,3.14c0.49,0.52,1.71,0.63,3.18-0.77c0.83-0.79,1.65-2.74,3.53-5.79c0.84-1.36,1.37-1.74,2.5-1.55 c1.15,0.2,0.89,1.68,0.21,2.94c-1.21,2.24-2.79,4.28-2.89,4.39c-1.11,1.2-1,2.43-0.25,3.03c0.73,0.58,2.33,0.34,2.94-0.43 c0.61-0.77,1.21-0.98,3.07-5.43c0.69-1.65,1.22-3.1,2.26-3.13c1.51-0.03,1.19,1.34,0.76,3.05c-0.7,2.8-2.63,5.69-2.65,5.72 c-0.85,1.71-0.74,2.83,0.41,3.18c1.5,0.45,2.74-0.57,3.92-3.18c0.19-0.43,4.89-13.16,5.69-19.6 C63.86,89.02,59.98,87.14,51.19,85.46z" fill="#F44336"/>
  </g>
</svg>

<svg viewBox="0 0 128 128" xmlns="http://www.w3.org/2000/svg">
  <defs/>
  <path d="M101.53,46.83 C102.74,42.54 103.7,36.4 102.55,32.06 C100.94,25.95 98.7,25.03 98.7,25.03 C98.7,25.03 99.07,19.15 97.73,15.86 C92.34,2.6 57.05,0.71 44.25,8.35 C31.56,15.93 28.93,33.2 28.55,41.3 C28.16,49.4 35.04,58.58 43.44,64.54 C48.34,68.02 58.09,58.99 62.33,57.27 C56.15,51.19 49.98,45.1 43.8,39.02 C44.52,34.81 46.22,30.55 49.99,27.6 C56.8,22.27 85.24,21.53 84.54,31.6 C84.23,36.06 70.51,54.11 62.68,63.2 C62.68,63.2 63.61,83.89 61.08,103.4 C73.85,104.87 82.08,104.21 92.83,102.66 C92.69,93.11 93.17,94.13 93.03,84.59 C92.93,77.58 92.78,70.37 89.96,63.92 C89.75,63.44 88.67,62.87 88.43,62.4 C94.93,59.1 99.46,54.16 101.53,46.83 Z" fill="#F44336"/>
  <path d="M43.62,29.81 C44.05,24.87 44.07,19.52 46.54,15.11 C49.18,10.6 57.98,9.03 62.76,8.48 C71.83,7.44 87.51,9.02 88.65,20.53 C89.05,24.53 84.54,31.61 84.54,31.61 C84.54,31.61 84.08,29.23 82.73,28.54 C76.76,25.52 69.94,24.24 63.28,24.8 C51.41,26 46.17,30.34 43.56,42.03 C43.36,37.96 43.38,33.87 43.62,29.81 Z" fill="#823B1F"/>
  <path d="M94.72,39.83 C93.2,39.28 94.49,37.33 94.97,36.25 C97.38,30.71 98.55,24.64 98.39,18.61 C98.4,19.08 100.49,20.45 100.61,28.26 C100.67,32.16 99.07,36.34 96.53,39.31 C96.19,39.69 95.41,40.13 94.72,39.83 Z" fill="#823B1F"/>
  <path d="M49.73,48.37 C48.04,47.66 42.02,42.35 39.9,39.75 C35.57,34.44 30.76,27.31 33.67,20.29 C35.31,30.97 43.69,39.38 51.46,46.26 C52.59,47.18 51.24,49 49.73,48.37 Z" fill="#823B1F"/>
  <path d="M95,118.67 C93.57,112.93 93.11,107.07 92.86,101.19 C82.42,102.74 71.76,103.17 61.29,101.88 C60.3,108 60.33,112.08 58.51,119.36 C58.11,120.98 57.75,122.45 59.19,123.11 C59.7,123.34 60.38,123.17 60.73,122.72 C63.27,119.54 62.2,112.94 64.12,112.67 C67.24,112.22 64.18,121.03 64.83,122.79 C65.37,124.27 67.18,124.31 67.84,122.87 C68.12,122.29 68.18,121.63 68.24,120.99 C68.41,118.96 68.51,117.81 68.68,115.78 C68.77,114.73 68.79,112.66 70.57,112.69 C71.97,112.71 71.81,114.86 71.85,116.08 C71.94,119.16 71.1,122.06 71.57,123.02 C72.14,124.19 73.55,124.27 74.23,123.65 C76.16,121.3 75.12,117.43 75.52,114.57 C75.58,111.81 77.88,111.05 78.6,113.89 C78.95,116.06 78.78,118.38 78.61,120.58 C78.35,122.06 78.88,124.45 80.8,124.08 C81.72,123.81 82.03,122.68 82.13,121.72 C82.38,119.25 82.21,116.75 82.32,114.27 C82.31,113.52 82.58,112.55 83.49,112.45 C85.93,112.17 85.45,116.62 85.74,120.24 C85.88,122.01 85.83,123.85 87.41,123.89 C89.02,123.93 89.48,122.8 89.34,121.64 C89.03,118.97 88.38,116.42 88.39,113.33 C88.39,112.9 88.6,112.43 88.99,112.26 C90.02,111.88 90.69,113.08 90.88,113.94 C91.63,116.44 91.91,118.98 92.59,121.5 C92.88,122.55 93.54,123.86 94.61,123.67 C96.58,122.98 95.23,120.22 95,118.67 Z" fill="#C62828"/>
  <path d="M63.45,90.38 C63.45,90.38 68.84,76.55 71.26,62.89 C72.58,55.41 75.07,49.3 78,44.25 C75.06,42.99 72.23,42.62 69.06,43.1 C67.65,43.31 66.26,43.7 64.83,43.81 C61.55,44.05 59.4,42.72 55.02,43.37 C52.04,43.81 50,45.67 48.35,47.86 C46.69,50.05 45.63,52.61 44.66,55.18 C42.11,61.9 39.52,73.24 35.08,81.97 C44.76,87.31 63.45,90.38 63.45,90.38 Z" fill="#FF7555"/>
  <path d="M55.7,62.1 C54.65,62.32 53.98,61.06 54.01,60.32 C54.17,55.22 57.26,50.64 60.08,47.56 C62.79,44.61 65.85,43.14 69.38,43.13 C66.78,44.52 64.62,46.53 62.66,48.89 C60.88,51.25 59.59,53.96 58.58,56.74 C58.04,58.26 57.31,61.77 55.7,62.1 Z" fill="#823B1F"/>
  <path d="M77.48,64.84 C75.78,62.96 75.4,60.03 75.46,57.4 C75.62,51.04 78.54,42.8 78.54,42.8 C77.67,43.67 76.87,45 76.33,46.15 C73.17,52.86 70.86,59.97 69.48,67.26 C66.27,81.85 62.98,92.89 61.53,97.56 C61.42,97.91 62.4,97.39 62.81,96.77 C68.28,88.47 70.22,81.27 73.72,72.07 C73.81,71.82 73.91,71.57 74.1,71.38 C74.34,71.13 85.18,67.91 91.05,60.9 C86.84,62.84 82.09,64.4 77.48,64.84 Z" fill="#823B1F"/>
  <path d="M51.19,85.46 C45.24,84.33 40.99,83.02 36.08,79.97 C36.08,79.97 32.04,88.01 22.41,93.14 C22,93.36 20.64,93.9 21,95.23 C21.36,96.55 22.93,96.77 23.59,96.66 C26.37,96.2 28.44,94.01 30.47,92.14 C30.89,91.75 31.92,91.16 32.9,91.55 C33.56,91.82 33.36,92.57 32.82,93.18 C30.37,95.98 27.46,97.93 27.43,97.95 C26.6,98.45 25.76,99.75 27.23,100.56 C30.07,102.13 33.38,98.73 36.37,94.8 C36.73,94.33 37.37,93.74 38.41,94.18 C39.25,94.54 38.97,95.7 38.51,96.36 C36.65,99.02 34.33,101.06 34.31,101.08 C33.58,101.72 32.91,103.15 34.23,103.95 C35.55,104.76 37.92,104.19 41.81,97.76 C42.12,97.25 42.76,96.27 43.93,96.36 C44.97,96.44 45.27,97.13 44.65,98.47 C43.33,101.32 42.24,101.96 41.2,103.42 C40.01,105.09 40.53,105.86 41.19,106.56 C41.68,107.08 42.9,107.19 44.37,105.79 C45.2,105 46.02,103.05 47.9,100 C48.74,98.64 49.27,98.26 50.4,98.45 C51.55,98.65 51.29,100.13 50.61,101.39 C49.4,103.63 47.82,105.67 47.72,105.78 C46.61,106.98 46.72,108.21 47.47,108.81 C48.2,109.39 49.8,109.15 50.41,108.38 C51.02,107.61 51.62,107.4 53.48,102.95 C54.17,101.3 54.7,99.85 55.74,99.82 C57.25,99.79 56.93,101.16 56.5,102.87 C55.8,105.67 53.87,108.56 53.85,108.59 C53,110.3 53.11,111.42 54.26,111.77 C55.76,112.22 57,111.2 58.18,108.59 C58.37,108.16 63.07,95.43 63.87,88.99 C63.86,89.02 59.98,87.14 51.19,85.46 Z" fill="#F44336"/>
</svg>
